inst/assets/svg/wi-day-cloudy-windy.svg

<?xml version="1.0" encoding="UTF-8"?>
<svg xmlns="http://www.w3.org/2000/svg" xmlns:xlink="http://www.w3.org/1999/xlink" width="30pt" height="30pt" viewBox="0 0 30 30" version="1.1">
<g id="surface66">
<path style=" stroke:none;fill-rule:nonzero;fill:rgb(0%,0%,0%);fill-opacity:1;" d="M 0.449219 20.96875 C 0.449219 21.210938 0.53125 21.421875 0.691406 21.578125 C 1.128906 21.761719 1.421875 21.851563 1.570313 21.851563 L 9.449219 21.851563 C 9.691406 21.851563 9.890625 21.761719 10.050781 21.589844 C 10.21875 21.421875 10.300781 21.210938 10.300781 20.980469 C 10.300781 20.75 10.21875 20.550781 10.050781 20.390625 C 9.878906 20.230469 9.679688 20.148438 9.449219 20.148438 L 1.570313 20.148438 C 1.308594 20.148438 1.050781 20.230469 0.808594 20.390625 C 0.570313 20.550781 0.449219 20.75 0.449219 20.96875 Z M 1.839844 17.96875 C 1.839844 18.210938 1.921875 18.398438 2.089844 18.558594 C 2.238281 18.730469 2.429688 18.820313 2.671875 18.820313 L 12.070313 18.820313 C 12.308594 18.820313 12.511719 18.738281 12.679688 18.570313 C 12.851563 18.398438 12.929688 18.199219 12.929688 17.96875 C 12.929688 17.730469 12.851563 17.53125 12.679688 17.359375 C 12.511719 17.191406 12.308594 17.109375 12.070313 17.109375 L 2.671875 17.109375 C 2.441406 17.109375 2.238281 17.191406 2.078125 17.359375 C 1.921875 17.53125 1.839844 17.730469 1.839844 17.96875 Z M 2.890625 15.601563 C 2.890625 15.691406 2.949219 15.730469 3.058594 15.730469 L 4.449219 15.730469 C 4.570313 15.730469 4.640625 15.691406 4.671875 15.601563 C 4.929688 15.070313 5.289063 14.628906 5.761719 14.28125 C 6.230469 13.929688 6.761719 13.730469 7.339844 13.660156 L 7.878906 13.660156 C 7.988281 13.660156 8.039063 13.601563 8.039063 13.46875 L 8.109375 12.910156 C 8.179688 12.199219 8.410156 11.550781 8.800781 10.960938 C 9.191406 10.378906 9.699219 9.921875 10.328125 9.589844 C 10.960938 9.261719 11.628906 9.089844 12.351563 9.089844 C 13.441406 9.089844 14.390625 9.460938 15.199219 10.191406 C 16.011719 10.921875 16.46875 11.828125 16.589844 12.910156 L 16.660156 13.46875 C 16.660156 13.589844 16.71875 13.660156 16.839844 13.660156 L 18.441406 13.660156 C 19.328125 13.660156 20.089844 13.980469 20.738281 14.621094 C 21.390625 15.261719 21.710938 16.011719 21.710938 16.890625 C 21.710938 17.789063 21.390625 18.558594 20.738281 19.199219 C 20.101563 19.839844 19.328125 20.160156 18.429688 20.160156 L 11.539063 20.160156 C 11.429688 20.160156 11.371094 20.21875 11.371094 20.351563 L 11.371094 21.679688 C 11.371094 21.800781 11.429688 21.859375 11.539063 21.859375 L 18.429688 21.859375 C 19.328125 21.859375 20.160156 21.640625 20.921875 21.191406 C 21.679688 20.75 22.289063 20.140625 22.730469 19.378906 C 23.171875 18.621094 23.398438 17.789063 23.398438 16.890625 C 23.398438 16.160156 23.261719 15.5 22.96875 14.878906 C 23.75 13.921875 24.128906 12.820313 24.128906 11.601563 C 24.128906 10.660156 23.890625 9.789063 23.421875 8.980469 C 22.949219 8.171875 22.308594 7.53125 21.5 7.058594 C 20.691406 6.589844 19.808594 6.351563 18.871094 6.351563 C 18.140625 6.351563 17.441406 6.5 16.769531 6.800781 C 16.101563 7.101563 15.519531 7.511719 15.03125 8.050781 C 14.199219 7.621094 13.300781 7.398438 12.328125 7.398438 C 10.921875 7.398438 9.660156 7.839844 8.570313 8.710938 C 7.480469 9.578125 6.78125 10.699219 6.480469 12.070313 C 5.628906 12.28125 4.878906 12.699219 4.230469 13.320313 C 3.578125 13.941406 3.128906 14.679688 2.878906 15.53125 C 2.898438 15.550781 2.890625 15.570313 2.890625 15.601563 Z M 3.601563 24.160156 C 3.601563 24.398438 3.691406 24.589844 3.859375 24.75 C 4.019531 24.921875 4.21875 25 4.449219 25 L 13.871094 25 C 14.101563 25 14.300781 24.921875 14.460938 24.75 C 14.621094 24.578125 14.699219 24.390625 14.699219 24.148438 C 14.699219 23.898438 14.621094 23.691406 14.460938 23.53125 C 14.300781 23.371094 14.101563 23.28125 13.859375 23.28125 L 4.449219 23.28125 C 4.210938 23.28125 4.011719 23.359375 3.851563 23.53125 C 3.691406 23.699219 3.601563 23.910156 3.601563 24.160156 Z M 11.089844 4.648438 C 11.089844 4.898438 11.171875 5.101563 11.328125 5.25 L 11.96875 5.910156 C 12.128906 6.070313 12.328125 6.148438 12.570313 6.148438 C 12.828125 6.148438 13.03125 6.070313 13.191406 5.910156 C 13.351563 5.75 13.429688 5.550781 13.429688 5.300781 C 13.429688 5.070313 13.351563 4.871094 13.191406 4.710938 L 12.539063 4.058594 C 12.371094 3.890625 12.179688 3.808594 11.96875 3.808594 C 11.71875 3.808594 11.511719 3.890625 11.339844 4.058594 C 11.171875 4.230469 11.089844 4.421875 11.089844 4.648438 Z M 16.449219 9.03125 C 17.109375 8.398438 17.929688 8.078125 18.898438 8.078125 C 19.871094 8.078125 20.699219 8.421875 21.390625 9.109375 C 22.070313 9.789063 22.421875 10.621094 22.421875 11.601563 C 22.421875 12.269531 22.269531 12.871094 21.960938 13.410156 C 21.019531 12.460938 19.851563 11.980469 18.460938 11.980469 L 18.160156 11.980469 C 17.871094 10.828125 17.300781 9.851563 16.449219 9.03125 Z M 18.050781 3.808594 C 18.050781 4.050781 18.128906 4.238281 18.300781 4.398438 C 18.46875 4.558594 18.660156 4.628906 18.898438 4.628906 C 19.148438 4.628906 19.351563 4.550781 19.5 4.398438 C 19.648438 4.25 19.730469 4.050781 19.730469 3.800781 L 19.730469 1.761719 C 19.730469 1.519531 19.648438 1.308594 19.5 1.148438 C 19.339844 0.980469 19.140625 0.898438 18.898438 0.898438 C 18.671875 0.898438 18.46875 0.980469 18.300781 1.148438 C 18.128906 1.320313 18.050781 1.519531 18.050781 1.761719 Z M 23.570313 6.089844 C 23.570313 6.328125 23.648438 6.53125 23.820313 6.691406 C 23.941406 6.851563 24.148438 6.929688 24.421875 6.929688 C 24.691406 6.929688 24.890625 6.851563 25.011719 6.691406 L 26.46875 5.25 C 26.628906 5.101563 26.710938 4.890625 26.710938 4.628906 C 26.710938 4.398438 26.628906 4.199219 26.460938 4.03125 C 26.289063 3.859375 26.089844 3.78125 25.859375 3.78125 C 25.628906 3.78125 25.421875 3.859375 25.25 4.011719 L 23.828125 5.5 C 23.660156 5.671875 23.570313 5.859375 23.570313 6.089844 Z M 24.371094 17.949219 C 24.371094 18.191406 24.449219 18.390625 24.601563 18.550781 L 25.261719 19.179688 C 25.5 19.359375 25.710938 19.449219 25.871094 19.449219 C 26.03125 19.449219 26.238281 19.359375 26.480469 19.179688 C 26.640625 19.019531 26.71875 18.820313 26.71875 18.578125 C 26.71875 18.351563 26.640625 18.148438 26.480469 17.96875 L 25.839844 17.359375 C 25.648438 17.191406 25.441406 17.101563 25.191406 17.101563 C 24.949219 17.101563 24.761719 17.179688 24.601563 17.339844 C 24.449219 17.511719 24.371094 17.710938 24.371094 17.949219 Z M 25.808594 11.628906 C 25.808594 11.871094 25.898438 12.078125 26.078125 12.238281 C 26.261719 12.410156 26.460938 12.488281 26.679688 12.488281 L 28.710938 12.488281 C 28.941406 12.488281 29.128906 12.410156 29.300781 12.238281 C 29.46875 12.070313 29.550781 11.871094 29.550781 11.628906 C 29.550781 11.410156 29.46875 11.21875 29.308594 11.058594 C 29.148438 10.910156 28.949219 10.828125 28.71875 10.828125 L 26.691406 10.828125 C 26.449219 10.828125 26.238281 10.910156 26.070313 11.058594 C 25.898438 11.21875 25.808594 11.410156 25.808594 11.628906 Z M 25.808594 11.628906 "/>
</g>
</svg>

<?xml version="1.0" encoding="utf-8"?>
<!-- Generator: Adobe Illustrator 22.0.1, SVG Export Plug-In . SVG Version: 6.00 Build 0)  -->
<svg version="1.1" id="Layer_1" xmlns="http://www.w3.org/2000/svg" xmlns:xlink="http://www.w3.org/1999/xlink" x="0px" y="0px"
	 viewBox="0 0 30 30" style="enable-background:new 0 0 30 30;" xml:space="preserve">
<path d="M0.45,20.97c0,0.24,0.08,0.45,0.24,0.61c0.44,0.18,0.73,0.27,0.88,0.27h7.88c0.24,0,0.44-0.09,0.6-0.26
	c0.17-0.17,0.25-0.38,0.25-0.61c0-0.23-0.08-0.43-0.25-0.59c-0.17-0.16-0.37-0.24-0.6-0.24H1.57c-0.26,0-0.52,0.08-0.76,0.24
	C0.57,20.55,0.45,20.75,0.45,20.97z M1.84,17.97c0,0.24,0.08,0.43,0.25,0.59c0.15,0.17,0.34,0.26,0.58,0.26h9.4
	c0.24,0,0.44-0.08,0.61-0.25c0.17-0.17,0.25-0.37,0.25-0.6c0-0.24-0.08-0.44-0.25-0.61c-0.17-0.17-0.37-0.25-0.61-0.25h-9.4
	c-0.23,0-0.43,0.08-0.59,0.25C1.92,17.53,1.84,17.73,1.84,17.97z M2.89,15.6c0,0.09,0.06,0.13,0.17,0.13h1.39
	c0.12,0,0.19-0.04,0.22-0.13c0.26-0.53,0.62-0.97,1.09-1.32c0.47-0.35,1-0.55,1.58-0.62h0.54c0.11,0,0.16-0.06,0.16-0.19l0.07-0.56
	c0.07-0.71,0.3-1.36,0.69-1.95c0.39-0.58,0.9-1.04,1.53-1.37s1.3-0.5,2.02-0.5c1.09,0,2.04,0.37,2.85,1.1s1.27,1.64,1.39,2.72
	l0.07,0.56c0,0.12,0.06,0.19,0.18,0.19h1.6c0.89,0,1.65,0.32,2.3,0.96c0.65,0.64,0.97,1.39,0.97,2.27c0,0.9-0.32,1.67-0.97,2.31
	c-0.64,0.64-1.41,0.96-2.31,0.96h-6.89c-0.11,0-0.17,0.06-0.17,0.19v1.33c0,0.12,0.06,0.18,0.17,0.18h6.89
	c0.9,0,1.73-0.22,2.49-0.67c0.76-0.44,1.37-1.05,1.81-1.81c0.44-0.76,0.67-1.59,0.67-2.49c0-0.73-0.14-1.39-0.43-2.01
	c0.78-0.96,1.16-2.06,1.16-3.28c0-0.94-0.24-1.81-0.71-2.62c-0.47-0.81-1.11-1.45-1.92-1.92c-0.81-0.47-1.69-0.71-2.63-0.71
	c-0.73,0-1.43,0.15-2.1,0.45c-0.67,0.3-1.25,0.71-1.74,1.25c-0.83-0.43-1.73-0.65-2.7-0.65c-1.41,0-2.67,0.44-3.76,1.31
	s-1.79,1.99-2.09,3.36c-0.85,0.21-1.6,0.63-2.25,1.25s-1.1,1.36-1.35,2.21C2.9,15.55,2.89,15.57,2.89,15.6z M3.6,24.16
	c0,0.24,0.09,0.43,0.26,0.59C4.02,24.92,4.22,25,4.45,25h9.42c0.23,0,0.43-0.08,0.59-0.25s0.24-0.36,0.24-0.6
	c0-0.25-0.08-0.46-0.24-0.62s-0.36-0.25-0.6-0.25H4.45c-0.24,0-0.44,0.08-0.6,0.25S3.6,23.91,3.6,24.16z M11.09,4.65
	c0,0.25,0.08,0.45,0.24,0.6l0.64,0.66c0.16,0.16,0.36,0.24,0.6,0.24c0.26,0,0.46-0.08,0.62-0.24c0.16-0.16,0.24-0.36,0.24-0.61
	c0-0.23-0.08-0.43-0.24-0.59l-0.65-0.65c-0.17-0.17-0.36-0.25-0.57-0.25c-0.25,0-0.46,0.08-0.63,0.25S11.09,4.42,11.09,4.65z
	 M16.45,9.03c0.66-0.63,1.48-0.95,2.45-0.95c0.97,0,1.8,0.34,2.49,1.03c0.68,0.68,1.03,1.51,1.03,2.49c0,0.67-0.15,1.27-0.46,1.81
	c-0.94-0.95-2.11-1.43-3.5-1.43h-0.3C17.87,10.83,17.3,9.85,16.45,9.03z M18.05,3.81c0,0.24,0.08,0.43,0.25,0.59s0.36,0.23,0.6,0.23
	c0.25,0,0.45-0.08,0.6-0.23c0.15-0.15,0.23-0.35,0.23-0.6V1.76c0-0.24-0.08-0.45-0.23-0.61c-0.16-0.17-0.36-0.25-0.6-0.25
	c-0.23,0-0.43,0.08-0.6,0.25s-0.25,0.37-0.25,0.61V3.81z M23.57,6.09c0,0.24,0.08,0.44,0.25,0.6c0.12,0.16,0.33,0.24,0.6,0.24
	c0.27,0,0.47-0.08,0.59-0.24l1.46-1.44c0.16-0.15,0.24-0.36,0.24-0.62c0-0.23-0.08-0.43-0.25-0.6c-0.17-0.17-0.37-0.25-0.6-0.25
	s-0.44,0.08-0.61,0.23L23.83,5.5C23.66,5.67,23.57,5.86,23.57,6.09z M24.37,17.95c0,0.24,0.08,0.44,0.23,0.6l0.66,0.63
	c0.24,0.18,0.45,0.27,0.61,0.27c0.16,0,0.37-0.09,0.61-0.27c0.16-0.16,0.24-0.36,0.24-0.6c0-0.23-0.08-0.43-0.24-0.61l-0.64-0.61
	c-0.19-0.17-0.4-0.26-0.65-0.26c-0.24,0-0.43,0.08-0.59,0.24C24.45,17.51,24.37,17.71,24.37,17.95z M25.81,11.63
	c0,0.24,0.09,0.45,0.27,0.61c0.18,0.17,0.38,0.25,0.6,0.25h2.03c0.23,0,0.42-0.08,0.59-0.25c0.17-0.17,0.25-0.37,0.25-0.61
	c0-0.22-0.08-0.41-0.24-0.57c-0.16-0.15-0.36-0.23-0.59-0.23h-2.03c-0.24,0-0.45,0.08-0.62,0.23C25.9,11.22,25.81,11.41,25.81,11.63
	z"/>
</svg>
